flaticon/interaction/speech-bubble-12.svg

<svg xmlns="http://www.w3.org/2000/svg" width="32" height="32" viewBox="0 0 24 24">
    <path d="M 20.617188 13.039062 C 20.152344 12.574219 19.394531 12.574219 18.925781 13.039062 L 12.773438 19.191406 L 11.925781 22.304688 L 11.71875 22.511719 C 11.5625 22.667969 11.5625 22.917969 11.714844 23.074219 L 11.710938 23.082031 L 11.71875 23.078125 C 11.796875 23.15625 11.898438 23.195312 12 23.195312 C 12.101562 23.195312 12.203125 23.15625 12.28125 23.078125 L 12.492188 22.867188 L 15.601562 22.019531 L 21.753906 15.867188 C 22.222656 15.402344 22.222656 14.644531 21.753906 14.175781 Z M 13.695312 19.402344 L 17.792969 15.304688 L 19.488281 17 L 15.394531 21.097656 Z M 13.335938 20.171875 L 14.625 21.457031 L 12.851562 21.941406 Z M 21.191406 15.300781 L 20.054688 16.4375 L 18.359375 14.738281 L 19.492188 13.605469 C 19.648438 13.449219 19.898438 13.449219 20.050781 13.605469 L 21.191406 14.742188 C 21.34375 14.898438 21.34375 15.148438 21.191406 15.300781 Z M 21.191406 15.300781"/>
    <path d="M 16.796875 0 L 7.199219 0 C 3.230469 0 0.00390625 3.230469 0.00390625 7.199219 L 0.00390625 12.796875 C 0.00390625 16.632812 3.015625 19.777344 6.800781 19.984375 L 6.800781 23.320312 C 6.800781 23.597656 6.964844 23.84375 7.21875 23.949219 C 7.304688 23.984375 7.394531 24 7.480469 24 C 7.65625 24 7.828125 23.929688 7.960938 23.800781 L 8.710938 23.050781 C 9.472656 22.289062 10.34375 21.652344 11.304688 21.15625 C 11.503906 21.054688 11.578125 20.8125 11.476562 20.617188 C 11.378906 20.421875 11.136719 20.34375 10.941406 20.445312 C 9.90625 20.976562 8.964844 21.664062 8.144531 22.484375 L 7.601562 23.027344 L 7.601562 19.195312 L 7.199219 19.195312 C 3.671875 19.195312 0.800781 16.324219 0.800781 12.796875 L 0.800781 7.199219 C 0.800781 3.671875 3.671875 0.800781 7.199219 0.800781 L 16.796875 0.800781 C 20.328125 0.800781 23.195312 3.671875 23.195312 7.199219 L 23.195312 12.796875 C 23.195312 13.71875 23 14.617188 22.605469 15.46875 C 22.515625 15.667969 22.601562 15.90625 22.800781 16 C 23.003906 16.089844 23.242188 16.003906 23.332031 15.804688 C 23.773438 14.847656 23.996094 13.835938 23.996094 12.796875 L 23.996094 7.199219 C 23.996094 3.230469 20.769531 0 16.796875 0 Z M 16.796875 0"/>
</svg>

<svg xmlns="http://www.w3.org/2000/svg" width="32" height="32" viewBox="0 0 24 24">
    <path d="M20.617 13.04a1.2 1.2 0 0 0-1.691 0l-6.153 6.151-.847 3.114-.207.207a.4.4 0 0 0-.004.562l-.004.008.008-.004a.396.396 0 0 0 .562 0l.211-.21 3.11-.848 6.152-6.153a1.193 1.193 0 0 0 0-1.691zm-6.922 6.362l4.098-4.097L19.488 17l-4.093 4.098zm-.36.77l1.29 1.285-1.773.484zm7.856-4.871l-1.136 1.136-1.696-1.699 1.133-1.133a.391.391 0 0 1 .559 0l1.14 1.137a.398.398 0 0 1 0 .559zm0 0"/>
    <path d="M16.797 0H7.199C3.23 0 .004 3.23.004 7.2v5.597A7.204 7.204 0 0 0 6.8 19.984v3.336a.677.677 0 0 0 1.16.48l.75-.75a10.42 10.42 0 0 1 2.594-1.894.398.398 0 0 0 .172-.539.396.396 0 0 0-.536-.172 11.156 11.156 0 0 0-2.796 2.04l-.543.542v-3.832h-.403a6.407 6.407 0 0 1-6.398-6.398V7.199A6.407 6.407 0 0 1 7.199.801h9.598a6.404 6.404 0 0 1 6.398 6.398v5.598c0 .922-.195 1.82-.59 2.672-.09.199-.003.437.196.531.203.09.441.004.531-.195a7.132 7.132 0 0 0 .664-3.008V7.199C23.996 3.23 20.77 0 16.796 0zm0 0"/>
</svg>
